src/lib/packages/icons/src/assets/line/receipt-text-alt.svg

<svg width="24" height="24" viewBox="0 0 24 24" fill="none" xmlns="http://www.w3.org/2000/svg">
<path d="M12 21.749C11.424 21.749 10.8481 21.53 10.4091 21.091L8.38904 19.072C8.12604 18.81 7.70396 18.781 7.40796 19.003L6.05005 20.022C5.51605 20.422 4.81302 20.485 4.21802 20.187C3.62102 19.889 3.25 19.289 3.25 18.622V5.379C3.25 4.712 3.62102 4.112 4.21802 3.814C4.81302 3.515 5.51605 3.57901 6.05005 3.97901L7.40906 4.999C7.70406 5.221 8.12704 5.19199 8.38904 4.92899L10.4091 2.91001C11.2861 2.03301 12.7139 2.03301 13.5909 2.91001L15.611 4.93C15.874 5.192 16.296 5.221 16.592 4.999L17.95 3.98002C18.484 3.58002 19.186 3.51601 19.782 3.81501C20.379 4.11301 20.75 4.71301 20.75 5.38001V18.623C20.75 19.29 20.379 19.89 19.782 20.188C19.186 20.486 18.484 20.423 17.95 20.023L16.5909 19.003C16.2959 18.781 15.873 18.81 15.611 19.073L13.5909 21.092C13.1519 21.53 12.576 21.749 12 21.749ZM7.85596 17.356C8.43696 17.356 9.01595 17.578 9.44995 18.011L11.47 20.031C11.753 20.314 12.247 20.314 12.531 20.031L14.551 18.012C15.338 17.225 16.605 17.137 17.491 17.803L18.851 18.823C18.959 18.905 19.061 18.872 19.113 18.847C19.164 18.821 19.251 18.758 19.251 18.623V5.38001C19.251 5.24501 19.164 5.18201 19.113 5.15601C19.061 5.13001 18.96 5.098 18.851 5.18L17.4919 6.20002C16.6029 6.86602 15.338 6.778 14.551 5.991L12.531 3.97101C12.238 3.67901 11.763 3.67901 11.47 3.97101L9.44995 5.98999C8.66295 6.77699 7.39701 6.86501 6.51001 6.19901L5.15002 5.17899C5.04302 5.09699 4.94094 5.129 4.88794 5.155C4.83694 5.181 4.75 5.244 4.75 5.379V18.622C4.75 18.757 4.83694 18.82 4.88794 18.846C4.94094 18.872 5.04202 18.904 5.15002 18.822L6.50903 17.802C6.90803 17.503 7.38296 17.356 7.85596 17.356ZM16.75 10C16.75 9.586 16.414 9.25 16 9.25H8C7.586 9.25 7.25 9.586 7.25 10C7.25 10.414 7.586 10.75 8 10.75H16C16.414 10.75 16.75 10.414 16.75 10ZM13.75 14C13.75 13.586 13.414 13.25 13 13.25H8C7.586 13.25 7.25 13.586 7.25 14C7.25 14.414 7.586 14.75 8 14.75H13C13.414 14.75 13.75 14.414 13.75 14Z" fill="currentColor"/>
</svg>

<svg xmlns="http://www.w3.org/2000/svg" width="24" height="24" fill="none"><path fill="currentColor" d="M12 21.749a2.242 2.242 0 0 1-1.59-.658l-2.021-2.019a.756.756 0 0 0-.981-.069L6.05 20.022c-.534.4-1.237.463-1.832.165a1.74 1.74 0 0 1-.968-1.565V5.379c0-.667.371-1.267.968-1.565a1.739 1.739 0 0 1 1.832.165l1.36 1.02a.753.753 0 0 0 .979-.07l2.02-2.019a2.253 2.253 0 0 1 3.182 0l2.02 2.02a.755.755 0 0 0 .981.069L17.95 3.98a1.739 1.739 0 0 1 1.832-.165c.597.298.968.898.968 1.565v13.243a1.74 1.74 0 0 1-.968 1.565 1.74 1.74 0 0 1-1.832-.165l-1.36-1.02a.753.753 0 0 0-.979.07l-2.02 2.019a2.245 2.245 0 0 1-1.591.657Zm-4.144-4.393c.581 0 1.16.222 1.594.655l2.02 2.02a.77.77 0 0 0 1.061 0l2.02-2.019a2.261 2.261 0 0 1 2.94-.209l1.36 1.02a.24.24 0 0 0 .262.024.241.241 0 0 0 .138-.224V5.38a.241.241 0 0 0-.138-.224.238.238 0 0 0-.262.024l-1.36 1.02a2.262 2.262 0 0 1-2.94-.209l-2.02-2.02a.752.752 0 0 0-1.061 0L9.45 5.99a2.261 2.261 0 0 1-2.94.209l-1.36-1.02a.238.238 0 0 0-.262-.024.241.241 0 0 0-.138.224v13.243c0 .135.087.198.138.224a.238.238 0 0 0 .262-.024l1.359-1.02a2.242 2.242 0 0 1 1.347-.446ZM16.75 10a.75.75 0 0 0-.75-.75H8a.75.75 0 0 0 0 1.5h8a.75.75 0 0 0 .75-.75Zm-3 4a.75.75 0 0 0-.75-.75H8a.75.75 0 0 0 0 1.5h5a.75.75 0 0 0 .75-.75Z"/></svg>
